Hydrogen/cursors/24/bottom_left_corner.svg

<?xml version="1.0" encoding="UTF-8" standalone="no"?>
<svg
   width="200"
   height="200"
   viewBox="0 0 200 200"
   fill="none"
   version="1.1"
   id="svg32"
   xmlns="http://www.w3.org/2000/svg"
   xmlns:svg="http://www.w3.org/2000/svg">
  <path
     id="path2"
     style="fill:#000000;stroke:#ffffff;stroke-width:9.9168;stroke-miterlimit:4;stroke-dasharray:none;filter:url(#filter0_d)"
     d="m 145.37695,25.623047 c -6.91,0 -13.82175,2.636103 -19.09375,7.908203 -8.57478,8.574869 -10.17464,21.482507 -4.80273,31.675781 L 63.207031,123.48047 c -10.193327,-5.37191 -23.100912,-3.77205 -31.675781,4.80273 -10.5442,10.544 -10.5442,27.64155 0,38.18555 10.5441,10.544 27.639394,10.544 38.183594,0 8.574868,-8.57479 10.176646,-21.48244 4.804687,-31.67578 L 132.79297,76.519531 c 10.19334,5.37201 23.10099,3.770263 31.67578,-4.804687 10.544,-10.5441 10.544,-27.639494 0,-38.183594 -5.272,-5.2721 -12.1818,-7.908203 -19.0918,-7.908203 z"
     transform="matrix(1.0083897,0,0,1.0083897,-0.77165867,-1.8219969)" />
  <defs
     id="defs30">
    <filter
       id="filter0_d"
       x="17.6238"
       y="23.6238"
       width="160.752"
       height="160.752"
       filterUnits="userSpaceOnUse"
       color-interpolation-filters="sRGB">
      <feFlood
         flood-opacity="0"
         result="BackgroundImageFix"
         id="feFlood12" />
      <feColorMatrix
         in="SourceAlpha"
         type="matrix"
         values="0 0 0 0 0 0 0 0 0 0 0 0 0 0 0 0 0 0 127 0"
         id="feColorMatrix14" />
      <feOffset
         dy="4"
         id="feOffset16" />
      <feGaussianBlur
         stdDeviation="3"
         id="feGaussianBlur18" />
      <feColorMatrix
         type="matrix"
         values="0 0 0 0 0 0 0 0 0 0 0 0 0 0 0 0 0 0 0.2 0"
         id="feColorMatrix20" />
      <feBlend
         mode="normal"
         in2="BackgroundImageFix"
         result="effect1_dropShadow"
         id="feBlend22" />
      <feBlend
         mode="normal"
         in="SourceGraphic"
         in2="effect1_dropShadow"
         result="shape"
         id="feBlend24" />
    </filter>
  </defs>
</svg>

<?xml version="1.0" encoding="UTF-8" standalone="no"?>
<svg
   width="200"
   height="200"
   viewBox="0 0 200 200"
   fill="none"
   version="1.1"
   id="svg32"
   xmlns="http://www.w3.org/2000/svg"
   xmlns:svg="http://www.w3.org/2000/svg">
  <path
     id="path2"
     style="fill:#000000;stroke:#ffffff;filter:url(#filter0_d);stroke-width:5;stroke-miterlimit:4;stroke-dasharray:none"
     d="M 145.37695 25.623047 C 138.46695 25.623047 131.5552 28.25915 126.2832 33.53125 C 117.70842 42.106119 116.10856 55.013757 121.48047 65.207031 L 63.207031 123.48047 C 53.013704 118.10856 40.106119 119.70842 31.53125 128.2832 C 20.98705 138.8272 20.98705 155.92475 31.53125 166.46875 C 42.07535 177.01275 59.170644 177.01275 69.714844 166.46875 C 78.289712 157.89396 79.89149 144.98631 74.519531 134.79297 L 132.79297 76.519531 C 142.98631 81.891541 155.89396 80.289794 164.46875 71.714844 C 175.01275 61.170744 175.01275 44.07535 164.46875 33.53125 C 159.19675 28.25915 152.28695 25.623047 145.37695 25.623047 z " />
  <defs
     id="defs30">
    <filter
       id="filter0_d"
       x="17.6238"
       y="23.6238"
       width="160.752"
       height="160.752"
       filterUnits="userSpaceOnUse"
       color-interpolation-filters="sRGB">
      <feFlood
         flood-opacity="0"
         result="BackgroundImageFix"
         id="feFlood12" />
      <feColorMatrix
         in="SourceAlpha"
         type="matrix"
         values="0 0 0 0 0 0 0 0 0 0 0 0 0 0 0 0 0 0 127 0"
         id="feColorMatrix14" />
      <feOffset
         dy="4"
         id="feOffset16" />
      <feGaussianBlur
         stdDeviation="3"
         id="feGaussianBlur18" />
      <feColorMatrix
         type="matrix"
         values="0 0 0 0 0 0 0 0 0 0 0 0 0 0 0 0 0 0 0.2 0"
         id="feColorMatrix20" />
      <feBlend
         mode="normal"
         in2="BackgroundImageFix"
         result="effect1_dropShadow"
         id="feBlend22" />
      <feBlend
         mode="normal"
         in="SourceGraphic"
         in2="effect1_dropShadow"
         result="shape"
         id="feBlend24" />
    </filter>
  </defs>
</svg>
